X:929
T:Ashmolean House
R:reel
C:Tommy Gunn
Z:id:hn-reel-929
M:C|
L:1/8
K:D
AF~F2 EDB,A, | D2 (3FED FA~A2 | defd efdB | AFDE FEEB |
AF~F2 EDB,A, | D2 (3FED FAAF | ABde dBAF |1 A,CEG FDDB :|2 A,CEG FDDA ||
|: defg ~a3b | afdf edBA | defg ~a3b | afdf e3g |
fd~d2 Ad~d2 | ed (3Bcd egfe | dBAF ABAF |1 A,CEG FDDA :|2 A,CEG FDDB ||
P:variations
|: AF~F2 EDB,A, | D2ED FA~A2 | d2fd ~e2dB | AFDE FE~E2 |
AF~F2 EDB,A, | D2ED FAAB | ABde dBAF |1 A,CEG FDDB :|2 A,CEG FDDA ||
|: defg ~a3b | afdf eBBA | defg ~a3b | afdf e2de |
fd~d2 Ad~d2 | ed (3Bcd e2fe | dBAF ~A3F |1 A,CEG FDDA :|2 A,CEG FDDB ||

